!!!!SEGMENT: Ric2005-Miseremini_mei.krn
!!!id: Ric2005
!!!AGN: Motet
!!!SCT: Elzinga (1999)
!!!voices: 4
!!!COM: Jean Richafort
!!!OTL: Miseremini mei
**kern	**kern	**kern	**kern
*part4	*part3	*part2	*part1
*staff4	*staff3	*staff2	*staff1
*I"Bassus	*I"Tenor	*I"Altus	*I"Superius
*I'B	*I'T	*I'A	*I'S
*clefF4	*clefGv2	*clefGv2	*clefG2
*k[]	*k[]	*k[]	*k[]
*C:	*C:	*C:	*C:
*M2/1	*M2/1	*M2/1	*M2/1
*met(C|)	*met(C|)	*met(C|)	*met(C|)
!!section: Prima pars: Miseremini mei
!!!OMD: Prima pars: Miseremini mei
=1	=1	=1	=1
0r	0r	0r	1.e
.	.	.	2e
=2	=2	=2	=2
0r	0r	0r	1g
.	.	.	1g
=3	=3	=3	=3
0r	1.A	0r	1a
.	.	.	1a
.	2A	.	.
=4	=4	=4	=4
0r	1c	0r	2g
.	.	.	4c
.	.	.	4d
.	1c	.	4e
.	.	.	4f
.	.	.	4g
.	.	.	4a
=5	=5	=5	=5
0r	1d	0r	2b
.	.	.	2.cc
.	1d	.	.
.	.	.	8bL
.	.	.	8aJ
.	.	.	2b
=6	=6	=6	=6
0r	2c	1.A	1.cc
.	4F	.	.
.	4G	.	.
.	4A	.	.
.	4B	.	.
.	4c	2A	[2cc
.	4d	.	.
=7	=7	=7	=7
0r	2e	1c	2cc]
.	2.f	.	4b
.	.	.	4a
.	.	1c	1g
.	8eL	.	.
.	8dJ	.	.
.	2e	.	.
=8	=8	=8	=8
0r	1f	1d	2f
.	.	.	1a
.	2F	1d	.
.	2G	.	4g
.	.	.	4f
=9	=9	=9	=9
1.AA	2.A	2.c	1e
.	8GL	4B	.
.	8FJ	.	.
.	2E	1A	2r
2AA	[2c	.	2e
=10	=10	=10	=10
1C	2c]	1G	2.e
.	2c	.	.
.	.	.	4f
1C	2c	2r	2g
.	2c	2E	[2a
=11	=11	=11	=11
1D	1A	2.F	4a]
.	.	.	4g
.	.	.	1f
.	.	4G	.
1D	2.A	2A	.
.	.	2F	4e
.	4B	.	4d
=12	=12	=12	=12
1C	1c	1A	1e
2r	2r	1G	2r
[2C	[2e	.	[2g
=13	=13	=13	=13
2C]	2e]	2r	2g]
2C	2e	1c	2g
2C	2e	.	2g
2C	2e	2c	2g
=14	=14	=14	=14
1C	1e	2c	1g
.	.	2c	.
1F	1f	1c	1a
=15	=15	=15	=15
0C	1e	1c	1g
.	1e	1G	2.cc
.	.	.	4b
=16	=16	=16	=16
2r	1e	2.c	2a
2C	.	.	2g
.	.	4B	.
2D	2d	2A	4f
.	.	.	4e
2E	[2c	2G	2g
=17	=17	=17	=17
2F	2c]	2A	2f
2C	2c	2E	1e
1D	2.A	1F	.
.	.	.	2d
.	4G	.	.
=18	=18	=18	=18
0AA	4A	[0E	1e
.	4B	.	.
.	1c	.	.
.	.	.	2r
.	4B	.	[2e
.	4A	.	.
=19	=19	=19	=19
2r	1G	0E]	2e]
1E	.	.	2e
.	2r	.	2e
2E	[2B	.	2e
=20	=20	=20	=20
2E	2B]	0r	1g
2E	2B	.	.
2.G	2B	.	2d
.	2B	.	[2g
8FL	.	.	.
8EJ	.	.	.
=21	=21	=21	=21
1D	1d	1r	4g]
.	.	.	4f
.	.	.	4f
.	.	.	8eL
.	.	.	8dJ
2C	1G	2r	2e
[2G	.	[2B	[2d
=22	=22	=22	=22
4G]	2r	2B]	2d]
4F	.	.	.
4E	2G	2B	2.g
4D	.	.	.
1E	2G	2B	.
.	.	.	4f
.	2G	2B	4g
.	.	.	4e
=23	=23	=23	=23
1D	1A	1d	2.f
.	.	.	4g
2r	1A	2c	4a
.	.	.	4b
2AA	.	[2e	[2cc
=24	=24	=24	=24
2.C	2E	2e]	4cc]
.	.	.	4b
.	2.e	4d	1a
4D	.	4c	.
1E	.	1B	.
.	4d	.	.
.	4c	.	2g#i
.	4B	.	.
=25	=25	=25	=25
0AA	1c	0A	0a
.	2r	.	.
.	2c	.	.
=26	=26	=26	=26
0r	2d	0r	2r
.	2e	.	2g
.	2f	.	2a
.	2d	.	2b
=27	=27	=27	=27
0r	2e	0r	4cc
.	.	.	4b
.	1f	.	4a
.	.	.	4g
.	.	.	2a
.	2e	.	2cc
=28	=28	=28	=28
1r	2d	1r	4b
.	.	.	4a
.	2c	.	2.a
1E	1B	2r	.
.	.	.	8g#iL
.	.	.	8f#iJ
.	.	2e	2g#i
=29	=29	=29	=29
1.F	0A	2c	0a
.	.	2.d	.
.	.	4B	.
2E	.	[2c	.
=30	=30	=30	=30
2D	0r	4c]	1r
.	.	8BL	.
.	.	8AJ	.
2C	.	2A	.
1BB	.	4G#i	1b
.	.	4F#i	.
.	.	2G#i	.
=31	=31	=31	=31
1AA	1e	0A	2.cc
.	.	.	4b
2r	2.f	.	4a
.	.	.	4g
2D	.	.	[2f
.	4e	.	.
=32	=32	=32	=32
2D	2d	1r	4f]
.	.	.	4e
2AA	2c	.	1a
1E	1B	1E	.
.	.	.	2g#i
=33	=33	=33	=33
1r	0A	1F	0a
1AA	.	2E	.
.	.	[2A	.
=34	=34	=34	=34
1BB-X	0r	2A]	0r
.	.	2G	.
2AA	.	2.A	.
[2D	.	.	.
.	.	4B	.
=35	=35	=35	=35
2D]	0r	4A	0r
.	.	4B	.
2C	.	4c	.
.	.	4A	.
2D	.	4B	.
.	.	4A	.
2AA	.	[2c	.
=36	=36	=36	=36
2C	1r	4c]	0r
.	.	4B	.
2D	.	1A	.
1BB	1D	.	.
.	.	2G#i	.
=37	=37	=37	=37
1AA	1E	1A	0r
2r	1D	2F	.
[2A	.	4E	.
.	.	4D	.
=38	=38	=38	=38
2A]	2r	1D	1d
2F	1d	.	.
2G	.	1r	1e
2A	2c#i	.	.
=39	=39	=39	=39
2D	2.d	1A	1d
1D	.	.	.
.	4d	.	.
.	1d	2F	2r
2BB-X	.	2G	[2g
=40	=40	=40	=40
2C	2c	1A	2g]
2D	2A	.	2f
2GG	2B	2G	2g
[2C	2G	4E	2g
.	.	4F	.
=41	=41	=41	=41
2C]	1c	4G	0e
.	.	4E	.
2AA	.	1A	.
1E	1B	.	.
.	.	2G#i	.
=42	=42	=42	=42
1AA	1c	1A	1e
2r	2r	2r	[1e
[2C	[2c	[2G	.
=43	=43	=43	=43
2C]	2c]	2G]	2e]
2C	2c	2G	2e
1D	2.A	2.F	1f
.	4B	4G	.
=44	=44	=44	=44
0AA	1c	1A	1e
.	1A	1E	1r
=45	=45	=45	=45
0r	1.c	0r	1e
.	.	.	2.g
.	2c	.	.
.	.	.	4g
=46	=46	=46	=46
0r	1c	0r	2a
.	.	.	1cc
.	1d	.	.
.	.	.	2b
=47	=47	=47	=47
0r	1c	0r	2cc
.	.	.	2a
.	2A	.	2.cc
.	[2c	.	.
.	.	.	4b
=48	=48	=48	=48
0r	4c]	0r	2a
.	4d	.	.
.	1e	.	2g
.	.	.	1f
.	2d	.	.
=49	=49	=49	=49
1AA	[0e	1r	0e
[1C	.	1E	.
=50	=50	=50	=50
2C]	1e]	2.G	0r
2C	.	.	.
.	.	4G	.
1C	1r	2A	.
.	.	[2c	.
=51	=51	=51	=51
1D	1d	2c]	1r
.	.	2B	.
[1C	[1e	1c	1g
=52	=52	=52	=52
1C]	2e]	2r	2.cc
.	2e	2G	.
.	.	.	4b
2r	1e	2.c	2a
2C	.	.	2g
.	.	4B	.
=53	=53	=53	=53
2D	2d	2A	2f
2E	1c	2G	1e
1F	.	2.A	.
.	4B	.	2d
.	4A	4B	.
=54	=54	=54	=54
2E	2G	2c	4e
.	.	.	4f
1E	1c	2B	4g
.	.	.	4a
.	.	[1e	4b
.	.	.	4g
2C	2c	.	2cc
=55	=55	=55	=55
1D	1B	2e]	4b
.	.	.	4a
.	.	4d	2.a
.	.	4c	.
1E	1B	1B	.
.	.	.	8g#iL
.	.	.	8f#iJ
.	.	.	2g#i
=	=	=	=
00AA	00A	00c	00a
=||	=||	=||	=||
*M2/1	*M2/1	*M2/1	*M2/1
*met(C|)	*met(C|)	*met(C|)	*met(C|)
!!section: Secunda pars: Cutis mea
!!!OMD: Secunda pars: Cutis mea
!	!	!	!LO:TX:a:t=Secunda Pars&colon; Cutis mea
1r	0r	0c	0r
[1F	.	.	.
=56	=56	=56	=56
1F]	0r	1A	0r
1D	.	[1B	.
=57	=57	=57	=57
1.E	0e	2B]	0r
.	.	2E	.
.	.	1E	.
2AA	.	.	.
=58	=58	=58	=58
1AA	2.c	1e	0cc
.	4d	.	.
1A	2e	1c	.
.	[2f	.	.
=59	=59	=59	=59
1F	4f]	1.c	1a
.	4e	.	.
.	4d	.	.
.	4c	.	.
[1G	4B	.	[1b
.	4A	.	.
.	4B	2B	.
.	4c	.	.
=60	=60	=60	=60
2G]	2d	2B	2b]
2C	1e	1c	2g
2C	.	.	[1g
[2c	4d	4B	.
.	4c	4A	.
=61	=61	=61	=61
2c]	2.d	1G	1g]
2B	.	.	.
.	4e	.	.
2.c	2f	2F	2.a
.	2e	2C	.
4B	.	.	4g
=62	=62	=62	=62
2A	2d	2D	2f
2G	2.c	2E	2.e
2A	.	2.F	.
.	4A	.	8dL
.	.	.	8cJ
2D	2A	.	2d
.	.	4G	.
=63	=63	=63	=63
2AA	1c	1A	0e
1A	.	.	.
.	1B	2E	.
2G	.	[2e	.
=64	=64	=64	=64
1F	2r	2e]	1r
.	1A	2d	.
1E	.	2c	1g
.	2G	[2B	.
=65	=65	=65	=65
2D	2F	4B]	1a
.	.	4A	.
2C	1E	1A	.
1BB	.	.	1b
.	2D	2G#i	.
=66	=66	=66	=66
1AA	2E	2A	2.cc
.	2e	1c	.
.	.	.	4b
2r	2.e	.	2a
2E	.	2B	2g
.	4d	.	.
=67	=67	=67	=67
2F	2c	2A	2f
2G	2B	2G	1e
1A	2c	1F	.
.	2A	.	2d
=68	=68	=68	=68
1AA	2c	2E	2e
.	2A	1c	1a
2r	2.e	.	.
2E	.	2B	2g
.	4d	.	.
=69	=69	=69	=69
2F	2c	2A	2f
2G	2B	2G	2.e
1A	2c	1F	.
.	.	.	8dL
.	.	.	8cJ
.	[2A	.	2d
=70	=70	=70	=70
1AA	4A]	1E	1e
.	4B	.	.
.	1c	.	.
2.AA	.	1r	2r
.	4B	.	[2e
4BB	4A	.	.
=71	=71	=71	=71
2C	2G	2r	2e]
2AA	2c	2A	2e
2E	2B	2G	2g
2E	2c	2E	2g
=72	=72	=72	=72
1D	2d	1F	1a
.	2A	.	.
2.AA	2.c	2E	1a
.	.	[2E	.
4BB	4d	.	.
=73	=73	=73	=73
2C	2e	2E]	2g
2AA	2c	2E	2.a
2E	2B	2G	.
.	.	.	4g
2E	2c	2G	4g
.	.	.	8fL
.	.	.	8eJ
=74	=74	=74	=74
1D	2d	1A	1f
.	2A	.	.
2.AA	2.c	1A	[1e
4BB	4d	.	.
=75	=75	=75	=75
2C	2e	2G	1e]
2AA	4d	2.A	.
.	4c	.	.
2E	1B	.	2r
.	.	8G#iL	.
.	.	8F#iJ	.
2E	.	2G#i	[2e
=76	=76	=76	=76
2AA	2.A	2A	2e]
2A	.	2c	2e
.	4G	.	.
2G	2E	2B	2g
2E	2e	[2c	2g
=77	=77	=77	=77
2F	2c	4c]	1a
.	.	4A	.
2D	2.f	2d	.
1F	.	2c	1a
.	4c	.	.
.	2d	2A	.
=78	=78	=78	=78
0C	1e	1c	1g
.	2r	1G	2.cc
.	[2e	.	.
.	.	.	4b
=79	=79	=79	=79
2r	2e]	2.c	2a
2C	2e	.	2g
.	.	4B	.
2D	2d	2A	4f
.	.	.	4e
2E	[2c	2G	2g
=80	=80	=80	=80
2F	2c]	2A	2f
2C	2c	2E	2.e
1D	2.A	1F	.
.	.	.	4d
.	.	.	4d
.	4G	.	8cL
.	.	.	8dJ
=81	=81	=81	=81
0AA	4A	[0E	1e
.	4B	.	.
.	1c	.	.
.	.	.	2r
.	4B	.	[2e
.	4A	.	.
=82	=82	=82	=82
2r	1G	0E]	2e]
1E	.	.	2e
.	2r	.	2e
2E	[2B	.	2e
=83	=83	=83	=83
2E	2B]	0r	1g
2E	2B	.	.
2.G	2B	.	2d
.	2B	.	[2g
8FL	.	.	.
8EJ	.	.	.
=84	=84	=84	=84
1D	1d	1r	4g]
.	.	.	4f
.	.	.	4f
.	.	.	8eL
.	.	.	8dJ
2C	1G	2r	2e
[2G	.	[2B	[2d
=85	=85	=85	=85
4G]	2r	2B]	2d]
4F	.	.	.
4E	2G	2B	2.g
4D	.	.	.
1E	2G	2B	.
.	.	.	4f
.	2G	2B	4g
.	.	.	4e
=86	=86	=86	=86
1D	1A	1d	2.f
.	.	.	4g
2r	1A	2c	4a
.	.	.	4b
2AA	.	[2e	[2cc
=87	=87	=87	=87
2.C	2E	2e]	4cc]
.	.	.	4b
.	2.e	4d	2.a
4D	.	4c	.
1E	.	1B	.
.	4d	.	8g#iL
.	.	.	8f#iJ
.	4c	.	2g#i
.	4B	.	.
=88	=88	=88	=88
1AA	2c	1A	2a
.	4A	.	2.cc
.	4B	.	.
1A	4c	2r	.
.	4d	.	4b
.	4e	2c	4cc
.	4c	.	4a
=89	=89	=89	=89
2G	2d	2B	2b
2E	2.e	2G	1cc
1F	.	2.A	.
.	4d	.	.
.	4d	.	4b
.	8cL	4B	4a
.	8dJ	.	.
=90	=90	=90	=90
1E	2e	2c	4g
.	.	.	4f
.	1e	2B	4e
.	.	.	4d
1A	.	2r	2c
.	2c	2A	2cc
=91	=91	=91	=91
2G	2d	2B	2b
2E	2.e	2G	1cc
1F	.	2.A	.
.	4d	.	.
.	4d	.	4b
.	8cL	4B	4a
.	8dJ	.	.
=92	=92	=92	=92
1E	[0el	2c	4g
.	.	.	4f
.	.	2B	4e
.	.	.	4d
2r	.	2E	2c
2AA	.	[2e	[2cc
=93	=93	=93	=93
2.C	0e_	2e]	4cc]
.	.	.	4b
.	.	4d	2a
4D	.	4c	.
1E	.	1B	4a
.	.	.	8g#iL
.	.	.	8f#iJ
.	.	.	2g#i
=94	=94	=94	=94
00AAl	00e]	00Al	00al
==	==	==	==
*-	*-	*-	*-
!!!system-decoration: [*]
!!!RDF**kern: i = editorial accidental
!!!RDF**kern: l = terminal long
!!!ENC: Benjamin Ory
!!!END: 2021/1/11
!!!EED: Benjamin Ory
!!!EEV: 2021/05/02
!!!YEC: Copyright 2021 Benjamin Ory, All Rights Reserved
!!!ONB: Translated from MusicXML on 2021/05/02
